X: 1
T: Quince Dillon's High D Tune
R: reel
M: 4/4
N: Q: 1/2=120
L: 1/8
K: D
FE| "D"D2D2 FDFA| dcde "G"dcB2| "A"A2A2 c2e2| a2a2 "D"d'2FE|
    "D"D2D2 FDFA| dcde "G"dcB2| "A"ABAG FDEF| "D"D4 z2 :|
ag|: "D"fd2e d2A2| defg agf2| "C"e=c2d "Am"cAGA| "A"=cd"D"ef "G"gage|
     "D"fd2e d2A2| defg aba2| "A"ABcd egfe|1 "D"d2a2 a3g:|2 "D"d4 z2 |]
w: v1
